!!!COM: Bach, Johann Sebastian
!!!CDT: 1685/3//-1750/7/28/
!!!OTL@@DE: Aus meines Herzens Grunde
!!!OTL@EN:  From the depths of my heart
!!!AGN: 4-Part Chorale
!!!SCT: BH 001
!!!SCT: BWV 269
**harm	**root	**kern	**kern	**kern	**kern
!	!	!bass	!tenor	!alto	!sprno
*	*Iorgan	*Iorgan	*Iorgan	*Iorgan	*Iorgan
*	*	*clefF4	*clefF4	*clefG2	*clefG2
*k[b-e-a-d-]	*k[b-e-a-d-]	*k[b-e-a-d-]	*k[b-e-a-d-]	*k[b-e-a-d-]	*k[b-e-a-d-]
*A-:	*A-:	*A-:	*A-:	*A-:	*A-:
*M3/4	*M3/4	*M3/4	*M3/4	*M3/4	*M3/4
*MM60	*MM60	*MM60	*MM60	*MM60	*MM60
*>[A,A,B]	*>[A,A,B]	*>[A,A,B]	*>[A,A,B]	*>[A,A,B]	*>[A,A,B]
*>A	*>A	*>A	*>A	*>A	*>A
I	4GG	4AA-	4c	4e-	4a-
=1	=1	=1	=1	=1	=1
I	4GG	4A-	4c	4e-	2a-
IVb[vi]	4EE	4F	8d-	4f	.
.	.	.	8c	.	.
Vb	4DD	4G	4B-	4e-	4ee-
=2	=2	=2	=2	=2	=2
I	4GG	4A-	4A-	2e-	4.cc
V	4DD	4E-	4G	.	.
.	.	.	.	.	8b-
vi	4EE	4F	4A-	4c	4a-
=3	=3	=3	=3	=3	=3
IV	4CC	4D-	8d-	8f	4.a-
.	.	.	8c	8e-	.
IV7d	8CC	8C	4d-	8f	.
viiob	8FF#	8BB-	.	8g	8b-
I	4GG	4AA-	4e-	4a-	4cc
=4	=4	=4	=4	=4	=4
V;	2DD;	2E-;	2e-;	2g;	2b-;
I	4GG	4AA-	4e-	4a-	4cc
=5	=5	=5	=5	=5	=5
Vb	4DD	4GG	4B-	4e-	2ee-
vi7b	4EE	4AA-	4c	4f	.
viiob	4FF#	4BB-	4d-	4g	4dd-
=6	=6	=6	=6	=6	=6
Ib	4GG	4C	4e-	2a-	4cc
ii7b	4AA	4D-	4f	.	2b-
V7	4DD	4E-	8e-	4g	.
.	.	.	8d-	.	.
=7	=7	=7	=7	=7	=7
I;	2GG;	2AA-;	2c;	2e-;	2a-;
=:|!	=:|!	=:|!	=:|!	=:|!	=:|!
*>B	*>B	*>B	*>B	*>B	*>B
I	4GG	4AA-	4e-	[4a-	4cc
=8	=8	=8	=8	=8	=8
I	4GG	4AA-	4e-	8a-]	4cc
.	.	.	.	8g	.
ii	4AA	4BB-	4d-	8f	4dd-
.	.	.	.	8g	.
Ib	4GG	4C	8c	[4a-	4ee-
.	.	.	8B-	.	.
=9	=9	=9	=9	=9	=9
Ib	4.GG	4.C	8c	8a-]	4.ee-
.	.	.	8d-	8b-	.
.	.	.	4e-	8a-	.
V7c	8DD	8BB-	.	8g	8dd-
I	4GG	4AA-	4e-	4a-	4cc
!!linebreak: 2
=10	=10	=10	=10	=10	=10
V;	2DD;	2E-;	2e-;	2g;	2b-;
vi	4EE	[4F	4c	4f	4a-
=11	=11	=11	=11	=11	=11
vi	4EE	4F]	4A-	4f	2cc
iiib[Ic]	4BB	4E-	4c	8g	.
.	.	.	.	8a-	.
iib	4AA	4D-	4f	4b-	4dd-
=12	=12	=12	=12	=12	=12
Ib	2GG	4.C	2e-	4b-	2ee-
.	.	.	.	4.a-	.
.	.	8D-	.	.	.
V7	4DD	4E-	4e-	.	4dd-
.	.	.	.	8g	.
=13	=13	=13	=13	=13	=13
I	4GG	8AA-	2.e-	2a-	2.cc
.	.	8BB-	.	.	.
Ib	4GG	4C	.	.	.
V7/IV	4GG	4AA-	.	4g-	.
=14	=14	=14	=14	=14	=14
IV;	2CC;	2D-;	2d-;	2f;	2a-;
I	4GG	4AA-	4e-	4a-	4cc
=15	=15	=15	=15	=15	=15
Vb	4DD	4GG	8e-	4.b-	2ee-
.	.	.	8d-	.	.
I	4GG	4AA-	4c	.	.
.	.	.	.	8a-	.
viiob	4FF#	4BB-	4d-	4g	4dd-
=16	=16	=16	=16	=16	=16
I	2GG	4C	2e-	2a-	2cc
.	.	4AA-	.	.	.
V	4DD	4E-	8e-	[4g	4b-
.	.	.	8d-	.	.
=17	=17	=17	=17	=17	=17
vi	4EE	8F	4c	8g]	4.a-
.	.	8E-	.	8f	.
IV	8CC	8D-	4d-	8f	.
viio7d	8FF#	8C	.	8g	8b-
I	4GG	8BB-	4e-	4a-	4cc
.	.	8AA-	.	.	.
=18	=18	=18	=18	=18	=18
V;	2DD;	2E-;	2e-;	2g;	2b-;
I	4GG	[4A-	4e-	4a-	4cc
=19	=19	=19	=19	=19	=19
Vb	2DD	4A-]	2e-	2b-	2ee-
.	.	4G	.	.	.
IVb	4CC	[4F	4f	8a-	4dd-
.	.	.	.	8g	.
=20	=20	=20	=20	=20	=20
vi	4EE	8F]	2f	2a-	4cc
.	.	8E-	.	.	.
ii7b	4AA	4D-	.	.	2b-
V7	4DD	4E-	8e-	4g	.
.	.	.	8d-	.	.
=21	=21	=21	=21	=21	=21
I;	2GG;	2AA-;	2c;	2e-;	2a-;
==	==	==	==	==	==
*-	*-	*-	*-	*-	*-
!!chor2scor: -l 2 -s 0.6 -o %b.pmx
!!!ONB1: Text by Georg Niege; 16th Century secular melody, first appears 
!!!ONB2: in sacred use in Neu Catechismus-Gesangbüchlein, Hamburg, 1598. 
!!!YEC: Copyright 2001 by Craig Stuart Sapp
!!!license: GNU General Public License (http://www.gnu.org/copyleft/gpl.html)
!!!SMA: 371 Bach Chorales, edited by Ludwig Erk, C.F. Peters
!!!PDT: 1850, 1865
!!!ONB: Harmony and Root analysis done manually by Craig Sapp
!! Beat 2 of measure 1 chord could also be IVb (with root on C)
